alura/assets/api/cursos/react-implementando-gestao-estado-zustand.svg

<svg width="50" height="50" viewBox="0 0 50 50" fill="none" xmlns="http://www.w3.org/2000/svg">
<path d="M47.7004 25.6999L47.2004 21.6999L30.1004 4.09993L25.7004 2.29993C21.6004 2.29993 7.90039 15.1999 7.90039 17.7999L3.60039 21.7999L3.40039 27.6999L17.6004 42.1999L42.4004 33.3999C43.0004 33.0999 48.6004 27.3999 47.8004 25.7999L47.7004 25.6999Z" fill="#00DFFC"/>
<path d="M29.7004 45.1C27.3004 47.5 23.4004 47.5 21.0004 45.1L4.70039 28.9C2.30039 26.5 2.30039 22.6 4.70039 20.2L20.9004 3.89998C23.3004 1.49998 27.2004 1.49998 29.6004 3.89998L45.8004 20.1C48.2004 22.5 48.2004 26.4 45.8004 28.8L38.4004 36.2" stroke="#444444" stroke-width="2.5" stroke-linecap="round" stroke-linejoin="round"/>
<path d="M30.9002 41.2V34.4M23.7002 46V27.5M9.1002 33.3V23.6M16.5002 41.2V30.3M25.5002 26.6L29.6002 30.8M18.5002 27.6L21.5002 25.9M10.7002 23L14.8002 27.1M28.8002 32.4C28.8002 31.2 29.8002 30.3 30.9002 30.3C32.0002 30.3 33.0002 31.3 33.0002 32.4C33.0002 33.5 32.0002 34.5 30.9002 34.5C29.8002 34.5 28.8002 33.5 28.8002 32.4ZM21.5002 25.2C21.5002 24 22.5002 23 23.7002 23C24.9002 23 25.9002 24 25.9002 25.2C25.9002 26.4 24.9002 27.4 23.7002 27.4C22.5002 27.4 21.5002 26.4 21.5002 25.2ZM14.4002 28.4C14.4002 27.3 15.3002 26.4 16.4002 26.4C17.5002 26.4 18.4002 27.3 18.4002 28.4C18.4002 29.5 17.5002 30.4 16.4002 30.4C15.3002 30.4 14.4002 29.5 14.4002 28.4ZM7.2002 21.4C7.2002 20.3 8.1002 19.4 9.2002 19.4C10.3002 19.4 11.2002 20.3 11.2002 21.4C11.2002 22.5 10.3002 23.4 9.2002 23.4C8.1002 23.4 7.2002 22.5 7.2002 21.4Z" stroke="#444444" stroke-linecap="round" stroke-linejoin="round"/>
<path d="M25.8004 19.9L22.7004 20.7001C21.5004 21.0001 20.6004 19.5 21.5004 18.6L23.7004 16.3" stroke="#444444" stroke-linecap="round" stroke-linejoin="round"/>
<path d="M31.5008 20.8L30.6008 23.9C30.3008 25.1 28.5008 25.1 28.2008 23.9L27.3008 20.8" stroke="#444444" stroke-linecap="round" stroke-linejoin="round"/>
<path d="M35.1 16.3L37.3 18.6C38.2 19.5 37.3 21.0001 36.1 20.7001L33 19.9" stroke="#444444" stroke-linecap="round" stroke-linejoin="round"/>
<path d="M36.9002 12.7L35.2002 14.5" stroke="#444444" stroke-linecap="round" stroke-linejoin="round"/>
<path d="M33 10.9L35.2 10.1" stroke="#444444" stroke-linecap="round" stroke-linejoin="round"/>
<path d="M27.3008 10L28.2008 6.9C28.5008 5.7 30.3008 5.7 30.6008 6.9L31.5008 10" stroke="#444444" stroke-linecap="round" stroke-linejoin="round"/>
<path d="M23.7004 14.5001L21.5004 12.2001C20.6004 11.3001 21.5004 9.80005 22.7004 10.1001L25.8004 10.9001" stroke="#444444" stroke-linecap="round" stroke-linejoin="round"/>
<path d="M15.8008 10.2L34.7008 29.1C36.1008 30.5 38.3008 30.5 39.6008 29.1L46.7008 22" stroke="#444444" stroke-width="0.5" stroke-linecap="round" stroke-linejoin="round"/>
<path d="M27.5004 2.79993L13.2004 16.7999C12.7004 17.2999 11.9004 17.2999 11.4004 16.7999L9.40039 14.8999" stroke="#444444" stroke-width="0.5" stroke-linecap="round" stroke-linejoin="round"/>
<path d="M18.1006 41.8999L43.1006 16.7999" stroke="#444444" stroke-width="0.5" stroke-linecap="round" stroke-linejoin="round"/>
<path d="M29.5002 18.2C31.0466 18.2 32.3002 16.9464 32.3002 15.4C32.3002 13.8536 31.0466 12.6 29.5002 12.6C27.9538 12.6 26.7002 13.8536 26.7002 15.4C26.7002 16.9464 27.9538 18.2 29.5002 18.2Z" stroke="#444444" stroke-width="0.5" stroke-miterlimit="10"/>
</svg>

<svg xmlns="http://www.w3.org/2000/svg" viewBox="0 0 50 50"><path fill="#00dffc" d="M47.7 25.7l-.5-4L30.1 4.1l-4.4-1.8c-4.1 0-17.8 12.9-17.8 15.5l-4.3 4-.2 5.9 14.2 14.5 24.8-8.8c.6-.3 6.2-6 5.4-7.6z"/><path fill="none" stroke="#444" stroke-linecap="round" stroke-linejoin="round" stroke-width="2.5" d="M29.7 45.1c-2.4 2.4-6.3 2.4-8.7 0L4.7 28.9c-2.4-2.4-2.4-6.3 0-8.7L20.9 3.9c2.4-2.4 6.3-2.4 8.7 0l16.2 16.2c2.4 2.4 2.4 6.3 0 8.7l-7.4 7.4"/><path fill="none" stroke="#454444" stroke-linecap="round" stroke-linejoin="round" d="M28.8 32.4c0-1.2 1-2.1 2.1-2.1s2.1 1 2.1 2.1-1 2.1-2.1 2.1-2.1-1-2.1-2.1zm2.1 8.8v-6.8M23.7 46V27.5M9.1 33.3v-9.7m7.4 17.6V30.3m5-5.1c0-1.2 1-2.2 2.2-2.2s2.2 1 2.2 2.2-1 2.2-2.2 2.2-2.2-1-2.2-2.2zm-7.1 3.2c0-1.1.9-2 2-2s2 .9 2 2-.9 2-2 2-2-.9-2-2zm-7.2-7c0-1.1.9-2 2-2s2 .9 2 2-.9 2-2 2-2-.9-2-2zm18.3 5.2l4.1 4.2m-11.1-3.2l3-1.7M10.7 23l4.1 4.1M25.8 19.9l-3.1.8c-1.2.3-2.1-1.2-1.2-2.1l2.2-2.3m7.8 4.5l-.9 3.1c-.3 1.2-2.1 1.2-2.4 0l-.9-3.1m7.8-4.5l2.2 2.3c.9.9 0 2.4-1.2 2.1l-3.1-.8m3.9-7.2l-1.7 1.8M33 10.9l2.2-.8m-7.9-.1l.9-3.1c.3-1.2 2.1-1.2 2.4 0l.9 3.1m-7.8 4.5l-2.2-2.3c-.9-.9 0-2.4 1.2-2.1l3.1.8"/><path fill="none" stroke="#454444" stroke-linecap="round" stroke-linejoin="round" stroke-width=".5" d="M15.8 10.2l18.9 18.9c1.4 1.4 3.6 1.4 4.9 0l7.1-7.1"/><path fill="none" stroke="#454444" stroke-linecap="round" stroke-linejoin="round" stroke-width=".5" d="M27.5 2.8l-14.3 14c-.5.5-1.3.5-1.8 0l-2-1.9m8.7 27l25-25.1"/><circle cx="29.5" cy="15.4" r="2.8" fill="none" stroke="#444" stroke-miterlimit="10" stroke-width=".5"/></svg>
